svgs/thin/pump.svg

<svg xmlns="http://www.w3.org/2000/svg" viewBox="0 0 640 512"><!--! Font Awesome Pro 6.6.0 by @fontawesome - https://fontawesome.com License - https://fontawesome.com/license (Commercial License) Copyright 2024 Fonticons, Inc. --><path d="M128 48c-8.8 0-16-7.2-16-16s7.2-16 16-16l160 0c8.8 0 16 7.2 16 16s-7.2 16-16 16L128 48zM320 32c0-17.7-14.3-32-32-32L128 0C110.3 0 96 14.3 96 32s14.3 32 32 32l0 160-64 0c0-17.7-14.3-32-32-32s-32 14.3-32 32L0 384c0 17.7 14.3 32 32 32s32-14.3 32-32l256 0 0-16L64 368l0-128 72 0c4.4 0 8-3.6 8-8l0-168 128 0 0 168c0 4.4 3.6 8 8 8l40 0 0-16-32 0 0-160c17.7 0 32-14.3 32-32zm120.8 88.1c7.9-5.3 17.1-8.1 26.6-8.1L576 112c26.5 0 48 21.5 48 48l0 288c0 26.5-21.5 48-48 48l-108.6 0c-9.5 0-18.7-2.8-26.6-8.1l-51.4-34.3C376 444.8 368 429.8 368 413.7l0-219.5c0-16 8-31 21.4-39.9l51.4-34.3zM380.5 141c-17.8 11.9-28.5 31.9-28.5 53.3l0 219.5c0 21.4 10.7 41.4 28.5 53.3l51.4 34.3c10.5 7 22.9 10.7 35.5 10.7L576 512c35.3 0 64-28.7 64-64l0-288c0-35.3-28.7-64-64-64L467.4 96c-12.6 0-25 3.7-35.5 10.7L380.5 141zM448 232c0 4.4 3.6 8 8 8l112 0c4.4 0 8-3.6 8-8s-3.6-8-8-8l-112 0c-4.4 0-8 3.6-8 8zm0 72c0 4.4 3.6 8 8 8l112 0c4.4 0 8-3.6 8-8s-3.6-8-8-8l-112 0c-4.4 0-8 3.6-8 8zm0 72c0 4.4 3.6 8 8 8l112 0c4.4 0 8-3.6 8-8s-3.6-8-8-8l-112 0c-4.4 0-8 3.6-8 8zM48 224l0 160c0 8.8-7.2 16-16 16s-16-7.2-16-16l0-160c0-8.8 7.2-16 16-16s16 7.2 16 16z"/></svg>

<svg xmlns="http://www.w3.org/2000/svg" viewBox="0 0 640 512"><!--! Font Awesome Pro 6.4.0 by @fontawesome - https://fontawesome.com License - https://fontawesome.com/license (Commercial License) Copyright 2023 Fonticons, Inc. --><path d="M128 48c-8.8 0-16-7.2-16-16s7.2-16 16-16l160 0c8.8 0 16 7.2 16 16s-7.2 16-16 16L128 48zM320 32c0-17.7-14.3-32-32-32H128C110.3 0 96 14.3 96 32s14.3 32 32 32V224H64c0-17.7-14.3-32-32-32s-32 14.3-32 32V384c0 17.7 14.3 32 32 32s32-14.3 32-32H320V368H64V240h72c4.4 0 8-3.6 8-8V64H272V232c0 4.4 3.6 8 8 8h40V224H288V64c17.7 0 32-14.3 32-32zm120.8 88.1c7.9-5.3 17.1-8.1 26.6-8.1H576c26.5 0 48 21.5 48 48V448c0 26.5-21.5 48-48 48H467.4c-9.5 0-18.7-2.8-26.6-8.1l-51.4-34.3C376 444.8 368 429.8 368 413.7V194.3c0-16 8-31 21.4-39.9l51.4-34.3zM380.5 141c-17.8 11.9-28.5 31.9-28.5 53.3V413.7c0 21.4 10.7 41.4 28.5 53.3l51.4 34.3c10.5 7 22.9 10.7 35.5 10.7H576c35.3 0 64-28.7 64-64V160c0-35.3-28.7-64-64-64H467.4c-12.6 0-25 3.7-35.5 10.7L380.5 141zM448 232c0 4.4 3.6 8 8 8H568c4.4 0 8-3.6 8-8s-3.6-8-8-8H456c-4.4 0-8 3.6-8 8zm0 72c0 4.4 3.6 8 8 8H568c4.4 0 8-3.6 8-8s-3.6-8-8-8H456c-4.4 0-8 3.6-8 8zm0 72c0 4.4 3.6 8 8 8H568c4.4 0 8-3.6 8-8s-3.6-8-8-8H456c-4.4 0-8 3.6-8 8zM48 224V384c0 8.8-7.2 16-16 16s-16-7.2-16-16V224c0-8.8 7.2-16 16-16s16 7.2 16 16z"/></svg>
